X: 786
T:Marich of Said In
% Nottingham Music Database
S:JiS McQuillen Jun 1977, via PR
M:4/4
L:1/4
K:G
DD |"G"DG AB/2c/2|"G"dc "D7"B3/2A/2|"G"G/2A/2B/2c/2 dB|"C"ef ef/2e/2|
"G"dd dc/2B/2|"D7"A3/2B/2 cd|"G"BG GB/2c/2|"G"dg bg/2g/2|
"Em"ge "D"f2|"C"e3/2d/2 "G"ed|"Am"cA A2|\
"D7"Ad e3/2d/2|
"C"e/2d/2c/2B/2 c"G"d|"Am"cA "D7"de|"G"dB GA/2B/2|"C"cB "D"AB/2A/2|"A"GA "D"DB|\
 [1"G"e/2d/2B/2d/2 "C/g"ce| [1"Em"dc "D"B2:|[2"D"AG G:|


